X: 32273
T: Piddellipom
R: barndance
M: 4/4
K: Amajor
(3AGF|E2 (3EFG A2A>c|B>AB<c A3c|d>cd>e f2f2|f>ed>c B2 (3AGF|
E2 (3EFG A2A>c|B>AB<c A3c|d>ef>e d>cB>A|B2A2 A2:|
f2|a>fd>f f>ec>A|B>AB>c d>ef>g|a>fd>f f>ec>A|B>AB<c A2A>f|
a>fd>f f>ec>A|B>AB>c d>ef>g|a>fd>f f>ec>A|B>AB<c A2||

